X: 30474
T: Old Wife Of Coverdale, The
R: slip jig
M: 9/8
K: Aminor
|:A3 c2e edc|B3 G2B dBG|A3 c2e edc|BAB GAB A3:|
|:age edc B3|g3 egd e2g|age edc B3|ABG GAB A3:|

